public/images/floater-tablet.svg

<svg height="927" viewBox="0 0 881 927" width="881" xmlns="http://www.w3.org/2000/svg" xmlns:xlink="http://www.w3.org/1999/xlink"><defs><filter id="a" height="305.5%" width="148.7%" x="-24.4%" y="-102.7%"><feGaussianBlur in="SourceGraphic" stdDeviation="50"/></filter><rect id="b" height="640" rx="50.219997" width="461"/><filter id="c" height="109.1%" width="112.6%" x="-6.3%" y="-3.9%"><feOffset dx="0" dy="4" in="SourceAlpha" result="shadowOffsetOuter1"/><feGaussianBlur in="shadowOffsetOuter1" result="shadowBlurOuter1" stdDeviation="9"/><feColorMatrix in="shadowBlurOuter1" type="matrix" values="0 0 0 0 0   0 0 0 0 0   0 0 0 0 0  0 0 0 0.04 0"/></filter><filter id="d" height="107%" width="109.8%" x="-4.9%" y="-2.9%"><feGaussianBlur in="SourceAlpha" result="shadowBlurInner1" stdDeviation="4.5"/><feOffset dx="0" dy="0" in="shadowBlurInner1" result="shadowOffsetInner1"/><feComposite in="shadowOffsetInner1" in2="SourceAlpha" k2="-1" k3="1" operator="arithmetic" result="shadowInnerInner1"/><feColorMatrix in="shadowInnerInner1" result="shadowMatrixInner1" type="matrix" values="0 0 0 0 0   0 0 0 0 0   0 0 0 0 0  0 0 0 0.12 0"/><feGaussianBlur in="SourceAlpha" result="shadowBlurInner2" stdDeviation="1"/><feOffset dx="0" dy="0" in="shadowBlurInner2" result="shadowOffsetInner2"/><feComposite in="shadowOffsetInner2" in2="SourceAlpha" k2="-1" k3="1" operator="arithmetic" result="shadowInnerInner2"/><feColorMatrix in="shadowInnerInner2" result="shadowMatrixInner2" type="matrix" values="0 0 0 0 0   0 0 0 0 0   0 0 0 0 0  0 0 0 0.06 0"/><feMerge><feMergeNode in="shadowMatrixInner1"/><feMergeNode in="shadowMatrixInner2"/></feMerge></filter></defs><g fill="none" fill-rule="evenodd" transform="translate(86.773972 -4.621871)"><path d="m291.271817 696.88779c-163.733247-.40082-294.271817-7.936187-294.271817-17.173188 0-5.561277 66.4768388-8.550575 125.555646-34.043938-24.6219591-16.068806-39.0419562-32.394124-39.0419562-43.195152 0-28.336024 99.1689282-51.30691 221.5000002-51.30691s221.5 22.970886 221.5 51.30691c0 15.1638-28.377654 41.215956-73.508342 62.160267 95.3572 2.921694 159.994652 8.578968 159.994652 15.078823 0 9.233382-130.436285 16.766462-294.079351 17.172714-4.573729.185619-9.185083.281286-13.82994.281286-4.640899 0-9.248573-.095504-13.818864-.280811z" fill="#9cacc2" filter="url(#a)" transform="matrix(.87461971 .48480962 -.48480962 .87461971 340.843932 -69.608492)"/><g transform="matrix(.8660254 .5 -.5 .8660254 397.226027 .621871)"><use fill="#000" filter="url(#c)" xlink:href="#b"/><use fill="#fff" fill-rule="evenodd" xlink:href="#b"/><use fill="#000" filter="url(#d)" xlink:href="#b"/><g fill="#ededed"><circle cx="230.294213" cy="617.088715" r="13.567499"/><circle cx="230.337033" cy="24.964631" r="3.888"/></g></g></g></svg>

<svg width="881px" height="927px" viewBox="0 0 881 927" version="1.1" xmlns="http://www.w3.org/2000/svg" xmlns:xlink="http://www.w3.org/1999/xlink">
    <!-- Generator: Sketch 51.3 (57544) - http://www.bohemiancoding.com/sketch -->
    <desc>Created with Sketch.</desc>
    <defs>
        <filter x="-24.4%" y="-102.7%" width="148.7%" height="305.5%" filterUnits="objectBoundingBox" id="filter-1">
            <feGaussianBlur stdDeviation="50" in="SourceGraphic"></feGaussianBlur>
        </filter>
        <rect id="path-2" x="0" y="0" width="461" height="640" rx="50.2199973"></rect>
        <filter x="-6.3%" y="-3.9%" width="112.6%" height="109.1%" filterUnits="objectBoundingBox" id="filter-3">
            <feOffset dx="0" dy="4" in="SourceAlpha" result="shadowOffsetOuter1"></feOffset>
            <feGaussianBlur stdDeviation="9" in="shadowOffsetOuter1" result="shadowBlurOuter1"></feGaussianBlur>
            <feColorMatrix values="0 0 0 0 0   0 0 0 0 0   0 0 0 0 0  0 0 0 0.04 0" type="matrix" in="shadowBlurOuter1"></feColorMatrix>
        </filter>
        <filter x="-4.9%" y="-2.9%" width="109.8%" height="107.0%" filterUnits="objectBoundingBox" id="filter-4">
            <feGaussianBlur stdDeviation="4.5" in="SourceAlpha" result="shadowBlurInner1"></feGaussianBlur>
            <feOffset dx="0" dy="0" in="shadowBlurInner1" result="shadowOffsetInner1"></feOffset>
            <feComposite in="shadowOffsetInner1" in2="SourceAlpha" operator="arithmetic" k2="-1" k3="1" result="shadowInnerInner1"></feComposite>
            <feColorMatrix values="0 0 0 0 0   0 0 0 0 0   0 0 0 0 0  0 0 0 0.12 0" type="matrix" in="shadowInnerInner1" result="shadowMatrixInner1"></feColorMatrix>
            <feGaussianBlur stdDeviation="1" in="SourceAlpha" result="shadowBlurInner2"></feGaussianBlur>
            <feOffset dx="0" dy="0" in="shadowBlurInner2" result="shadowOffsetInner2"></feOffset>
            <feComposite in="shadowOffsetInner2" in2="SourceAlpha" operator="arithmetic" k2="-1" k3="1" result="shadowInnerInner2"></feComposite>
            <feColorMatrix values="0 0 0 0 0   0 0 0 0 0   0 0 0 0 0  0 0 0 0.06 0" type="matrix" in="shadowInnerInner2" result="shadowMatrixInner2"></feColorMatrix>
            <feMerge>
                <feMergeNode in="shadowMatrixInner1"></feMergeNode>
                <feMergeNode in="shadowMatrixInner2"></feMergeNode>
            </feMerge>
        </filter>
    </defs>
    <g id="web" stroke="none" stroke-width="1" fill="none" fill-rule="evenodd">
        <g id="Desktop-HD" transform="translate(-1387.000000, -197.000000)">
            <g id="Group-3" transform="translate(1473.773972, 192.378129)">
                <g id="Group-8">
                    <path d="M291.271817,696.88779 C127.53857,696.48697 -3,688.951603 -3,679.714602 C-3,674.153325 63.4768388,671.164027 122.555646,645.670664 C97.9336869,629.601858 83.5136898,613.27654 83.5136898,602.475512 C83.5136898,574.139488 182.682618,551.168602 305.01369,551.168602 C427.344762,551.168602 526.51369,574.139488 526.51369,602.475512 C526.51369,617.639312 498.136036,643.691468 453.005348,664.635779 C548.362548,667.557473 613,673.214747 613,679.714602 C613,688.947984 482.563715,696.481064 318.920649,696.887316 C314.34692,697.072935 309.735566,697.168602 305.090709,697.168602 C300.44981,697.168602 295.842136,697.073098 291.271845,696.887791 Z" id="Shadow" fill="#9CACC2" filter="url(#filter-1)" transform="translate(305.000000, 624.168602) rotate(29.000000) translate(-305.000000, -624.168602) "></path>
                    <g id="body" transform="translate(436.844883, 393.000000) rotate(30.000000) translate(-436.844883, -393.000000) translate(206.344883, 73.000000)">
                        <g id="iPad">
                            <use fill="black" fill-opacity="1" filter="url(#filter-3)" xlink:href="#path-2"></use>
                            <use fill="#FFFFFF" fill-rule="evenodd" xlink:href="#path-2"></use>
                            <use fill="black" fill-opacity="1" filter="url(#filter-4)" xlink:href="#path-2"></use>
                        </g>
                        <g id="home/light" transform="translate(216.726714, 603.521216)" fill="#EDEDED">
                            <circle cx="13.5674993" cy="13.5674993" r="13.5674993"></circle>
                        </g>
                        <g id="camera/light" transform="translate(226.449033, 21.076631)" fill="#EDEDED">
                            <circle cx="3.88799979" cy="3.88799979" r="3.88799979"></circle>
                        </g>
                    </g>
                </g>
            </g>
        </g>
    </g>
</svg>
